src/lib/packages/icons/src/assets/line/exclamation-square.svg

<svg xmlns="http://www.w3.org/2000/svg" width="24" height="24" fill="none"><path fill="currentColor" d="M17.625 21.75H6.375c-2.66 0-4.125-1.465-4.125-4.125V6.375c0-2.66 1.465-4.125 4.125-4.125h11.25c2.66 0 4.125 1.465 4.125 4.125v11.25c0 2.66-1.465 4.125-4.125 4.125Zm-11.25-18c-1.84 0-2.625.785-2.625 2.625v11.25c0 1.84.785 2.625 2.625 2.625h11.25c1.84 0 2.625-.785 2.625-2.625V6.375c0-1.84-.785-2.625-2.625-2.625H6.375ZM13.02 15.5a1 1 0 0 0-1-1h-.01a.996.996 0 0 0-.995 1c0 .552.453 1 1.005 1a1 1 0 0 0 1-1Zm-.27-3.429V7.5a.75.75 0 0 0-1.5 0v4.571a.75.75 0 0 0 1.5 0Z"/></svg>

<svg width="24" height="24" viewBox="0 0 24 24" fill="none" xmlns="http://www.w3.org/2000/svg">
<path d="M17.625 21.75H6.375C3.715 21.75 2.25 20.285 2.25 17.625V6.375C2.25 3.715 3.715 2.25 6.375 2.25H17.625C20.285 2.25 21.75 3.715 21.75 6.375V17.625C21.75 20.285 20.285 21.75 17.625 21.75ZM6.375 3.75C4.535 3.75 3.75 4.535 3.75 6.375V17.625C3.75 19.465 4.535 20.25 6.375 20.25H17.625C19.465 20.25 20.25 19.465 20.25 17.625V6.375C20.25 4.535 19.465 3.75 17.625 3.75H6.375ZM13.02 15.5C13.02 14.948 12.573 14.5 12.02 14.5H12.01C11.458 14.5 11.0149 14.948 11.0149 15.5C11.0149 16.052 11.468 16.5 12.02 16.5C12.572 16.5 13.02 16.052 13.02 15.5ZM12.75 12.071V7.5C12.75 7.086 12.414 6.75 12 6.75C11.586 6.75 11.25 7.086 11.25 7.5V12.071C11.25 12.485 11.586 12.821 12 12.821C12.414 12.821 12.75 12.485 12.75 12.071Z" fill="currentColor"/>
</svg>
